!!! OTL: Literature87
!!! Chapter: 5
!!! Section: II
!!! Page: 364
!!! Mode: 
!!! Encoder: ESM
**kern
*staff1
*I"Piano
=1-
*clefF4
*k[]
*C:
*met(c)
*M4/4
2.r
8.G\L
16G\Jk
=2
4E\
8.G\L
16G\Jk
4E\
8.G\L
16G\Jk
=3
4F\
4D\
4r
8.F\L
16F\Jk
=4
4D\
8.F\L
16F\Jk
4D\
8.F\L
16F\Jk
=5
4E\
4C/
4r
8.C\L
16E\Jk
=6
4G\
8.E\L
16G\Jk
4c\
8.G\L
16c\Jk
=7
4e\
2c\
8.G\L
16c\Jk
=8
!!linebreak:original
4G\
8.E\L
16G\Jk
4F\
8.D\L
16G\Jk
=9
4E\
4r
4r
8.C\L
16E\Jk
=10
4G\
8.E\L
16G\Jk
4c\
8.G\L
16c\Jk
=11
4e\
2c\
8.G\L
16c\Jk
=12
4G\
8.E\L
16G\Jk
4F\
8.D\L
16G\Jk
=13
4C/
4r
4r
4r
==
*-
